source/static/icons/vk.svg

<svg xmlns="http://www.w3.org/2000/svg" width="18" height="18" viewBox="0 0 18 18">
  <defs>
    <style>
      .cls-1 {
        fill-rule: evenodd;
      }
    </style>
  </defs>
  <path id="Фигура_4" data-name="Фигура 4" class="cls-1" d="M16.2,0H1.8A1.793,1.793,0,0,0,0,1.8V16.2A1.793,1.793,0,0,0,1.8,18H16.2A1.793,1.793,0,0,0,18,16.2V1.8A1.793,1.793,0,0,0,16.2,0ZM13.7,10.4A15.933,15.933,0,0,1,15,11.7a4.233,4.233,0,0,1,.5.7,0.442,0.442,0,0,1-.3.7H13.3a1.656,1.656,0,0,1-1.2-.5,6.034,6.034,0,0,0-.8-0.8L11,11.5a0.349,0.349,0,0,0-.6.2,1.486,1.486,0,0,0-.2.9,0.53,0.53,0,0,1-.6.6,4.9,4.9,0,0,1-2.7-.6,5.814,5.814,0,0,1-1.8-1.7A22.1,22.1,0,0,1,2.5,6.5C2.4,6.2,2.5,6,2.9,6H4.8a0.42,0.42,0,0,1,.4.4A17.1,17.1,0,0,0,6.5,8.7a1.205,1.205,0,0,0,.5.5,0.288,0.288,0,0,0,.5-0.1,0.9,0.9,0,0,0,.1-0.5,9.652,9.652,0,0,0,0-1.7,0.85,0.85,0,0,0-.7-0.7c-0.1,0-.1-0.1,0-0.2a0.6,0.6,0,0,1,.6-0.3H9.7c0.3,0.1.3,0.2,0.4,0.6V8.7a0.864,0.864,0,0,0,.3.6c0.2,0.1.3-.1,0.4-0.2A6.15,6.15,0,0,0,12,7.2c0.1-.3.3-0.6,0.4-0.9A0.462,0.462,0,0,1,12.9,6h2.3c0.3,0.1.4,0.2,0.3,0.5a6.376,6.376,0,0,1-.8,1.4,13.444,13.444,0,0,1-1.1,1.4A0.708,0.708,0,0,0,13.7,10.4Z"/>
</svg>

<svg version="1.1" id="Layer_1" xmlns="http://www.w3.org/2000/svg" xmlns:xlink="http://www.w3.org/1999/xlink" x="0px" y="0px"
	 viewBox="0 0 18 18" enable-background="new 0 0 18 18" xml:space="preserve">
	<path fill-rule="evenodd" clip-rule="evenodd" d="M16.2,0H1.8C0.8,0,0,0.8,0,1.8v14.4c0,1,0.8,1.8,1.8,1.8h14.4
		c1,0,1.8-0.8,1.8-1.8V1.8C18,0.8,17.2,0,16.2,0z M13.7,10.4c0.4,0.4,0.9,0.8,1.3,1.3c0.2,0.2,0.3,0.4,0.5,0.7
		c0.2,0.3,0,0.7-0.3,0.7h-1.9c-0.5,0-0.9-0.2-1.2-0.5c-0.3-0.3-0.5-0.6-0.8-0.8c-0.1-0.1-0.2-0.2-0.3-0.3c-0.3-0.2-0.5-0.1-0.6,0.2
		c-0.2,0.3-0.2,0.6-0.2,0.9c0,0.4-0.2,0.6-0.6,0.6c-1,0-1.9-0.1-2.7-0.6c-0.7-0.4-1.3-1-1.8-1.7C4,9.5,3.2,8,2.5,6.5
		C2.4,6.2,2.5,6,2.9,6c0.6,0,1.2,0,1.9,0C5,6,5.1,6.1,5.2,6.4C5.6,7.2,6,8,6.5,8.7C6.6,8.9,6.8,9.1,7,9.2c0.2,0.2,0.4,0.1,0.5-0.1
		c0.1-0.2,0.1-0.3,0.1-0.5c0-0.6,0.1-1.1,0-1.7C7.5,6.5,7.3,6.3,6.9,6.2C6.8,6.2,6.8,6.1,6.9,6C7,5.8,7.2,5.7,7.5,5.7l2.2,0
		C10,5.8,10,5.9,10.1,6.3l0,2.4c0,0.1,0.1,0.5,0.3,0.6c0.2,0.1,0.3-0.1,0.4-0.2c0.5-0.5,0.9-1.2,1.2-1.9c0.1-0.3,0.3-0.6,0.4-0.9
		C12.5,6.1,12.6,6,12.9,6L15,6c0.1,0,0.1,0,0.2,0c0.3,0.1,0.4,0.2,0.3,0.5c-0.2,0.5-0.5,1-0.8,1.4c-0.3,0.5-0.7,0.9-1.1,1.4
		C13.3,9.8,13.3,10,13.7,10.4z"/>
</svg>
